images/dzen.svg

<svg width="148" height="148" viewBox="0 0 148 148" fill="none" xmlns="http://www.w3.org/2000/svg">
<path fill-rule="evenodd" clip-rule="evenodd" d="M33 0C14.7744 0 0 14.7747 0 33V72.9897C3.13086 72.9275 6.14844 72.9077 9.07031 72.8887C27.8389 72.7659 42.6074 72.6692 57.5 61.5C71.6709 50.8716 72.0283 23.8669 72.2334 8.35645V8.3418C72.2793 4.88721 72.3174 2.00391 72.5 0H33ZM75 0C75.0693 3.26147 75.0908 6.40137 75.1113 9.43604V9.56934C75.2344 28.3386 75.3311 43.1077 86.5 58C97.1279 72.1711 124.133 72.5283 139.644 72.7336C143.104 72.7793 145.993 72.8176 148 73V33C148 14.7747 133.226 0 115 0H75ZM148 75C144.69 75.0703 141.507 75.0913 138.43 75.1113C119.661 75.2341 104.893 75.3308 90 86.5C75.8291 97.1284 75.4717 124.133 75.2666 139.644V139.658C75.2207 143.113 75.1826 145.996 75 148H115C133.226 148 148 133.225 148 115V75ZM73 148C72.9307 144.738 72.9092 141.598 72.8887 138.563V138.43C72.7656 119.661 72.6689 104.892 61.5 90C50.8721 75.8289 23.8672 75.4717 8.35645 75.2664C4.89551 75.2207 2.00684 75.1824 0 75V115C0 133.225 14.7744 148 33 148H73Z" fill="url(#paint0_linear_2707_61)"/>
<defs>
<linearGradient id="paint0_linear_2707_61" x1="7.2549" y1="148" x2="151.661" y2="9.78516" gradientUnits="userSpaceOnUse">
<stop stop-color="#1D9854"/>
<stop offset="1" stop-color="#72C63B"/>
</linearGradient>
</defs>
</svg>

<svg width="148" height="148" fill="none" xmlns="http://www.w3.org/2000/svg"><path fill-rule="evenodd" clip-rule="evenodd" d="M33 0C14.774 0 0 14.775 0 33v39.99c3.13-.063 6.148-.082 9.07-.101 18.769-.123 33.537-.22 48.43-11.389C71.67 50.872 72.028 23.867 72.233 8.356v-.014c.046-3.455.084-6.338.267-8.342H33Zm42 0c.07 3.261.09 6.401.111 9.436v.133c.123 18.77.22 33.539 11.389 48.431 10.628 14.171 37.633 14.528 53.144 14.734 3.46.045 6.349.084 8.356.266V33c0-18.225-14.774-33-33-33H75Zm73 75c-3.31.07-6.493.091-9.57.111-18.769.123-33.537.22-48.43 11.389-14.17 10.628-14.528 37.633-14.733 53.144v.014c-.046 3.455-.084 6.338-.267 8.342h40c18.226 0 33-14.775 33-33V75Zm-75 73c-.07-3.262-.09-6.402-.111-9.437v-.133c-.123-18.769-.22-33.538-11.389-48.43C50.872 75.829 23.867 75.472 8.356 75.266 4.896 75.221 2.006 75.182 0 75v40c0 18.225 14.774 33 33 33h40Z" fill="url(#a)"/><defs><linearGradient id="a" x1="7.255" y1="148" x2="151.661" y2="9.785" gradientUnits="userSpaceOnUse"><stop stop-color="#1D9854"/><stop offset="1" stop-color="#72C63B"/></linearGradient></defs></svg>
